X:1
T:Title
%%score { ( 1 4 ) | ( 2 3 ) }
L:1/8
M:6/8
K:Ab
V:1 treble nm="Grand Piano"
V:4 treble 
V:2 treble 
V:3 treble 
V:1
 z3 z2[Q:1/4=100] c | d2 d Bcd | c3 A2 A | [Ac]2 [Ac] [=EGc]2 [EGc] | [FAc]3- [FAc]2 [FAc] | %5
 [FBd]2 [FBd] .[EGd]2 [EGB] | [EAc]3 .[DFc]2 [DFA] | [B,FA]2 [B,FA] .[=DFA]2 [DFc] | %8
 [EGB]3- [EGB]2 [GB]/[GB]/ | [GB]2 [GB] [=Ec]2 [EG] | B3 A2 A/A/ | d2 d [Ge]2 [GB] | d3 c2 c | %13
 [Fc]2 [FB] [FB]2 F | [Fc]2 [FB] [FB]2 [FB] | [Ac]2 [Ac] cBG |[M:5/8] A-A- A3 |] %17
V:2
 z3 z2 [A,EA] | [A,FA]2 [A,FA] [A,A]-[A,EA][A,FA] | [A,EA]3[K:bass] [A,C]2 [A,C] | %3
 [F,F]2 [F,F] C,2 C, | F,3- F,2 F, | B,2 B, z[K:treble] c[K:bass]E, | A,3 z[K:treble] B[K:bass]D, | %7
 =D,2 D, z[K:treble] B[K:bass]B,, | E,3 =E,2 [E,E] | [=E,C]2 [E,C] [C,C]2 [C,C] | %10
 [F,CF]3 [F,CF]2 [F,CF]/[F,CF]/ | [G,B,E]2 [G,B,E] [E,E]2 [E,D] | [A,EA]3- [A,EA]2 [A,EA] | %13
 [D,D]2 [D,D] [D,D]2 [D,D] | [=D,B,]2 [D,B,] [D,B,]2 [D,B,] | [E,E]2 [E,E] [E,D]2 [E,DE] | %16
[M:5/8] [A,CE]-[A,CE]- [A,CE]3 |] %17
V:3
 x6 | z3 .D3 | x3[K:bass] x3 | x6 | x6 | z3 .E,3[K:treble][K:bass] | z3 .D,3[K:treble][K:bass] | %7
 z3 .B,,3[K:treble][K:bass] | x6 | x6 | x6 | x6 | x6 | x6 | x6 | x6 |[M:5/8] x5 |] %17
V:4
 x6 | x6 | x6 | x6 | x6 | x6 | x6 | x6 | x6 | x6 | x6 | x6 | x6 | x6 | x6 | z3 .G3 |[M:5/8] x5 |] %17

